; generated by PrusaSlicer 2.2.0 on 2020-06-25 at 20:31:42 UTC

; 

; external perimeters extrusion width = 0.45mm
; perimeters extrusion width = 0.45mm
; infill extrusion width = 0.45mm
; solid infill extrusion width = 0.45mm
; top infill extrusion width = 0.40mm
; first layer extrusion width = 0.42mm

M73 P0 R122
M73 Q0 S123
M201 X1000 Y1000 Z200 E5000 ; sets maximum accelerations, mm/sec^2
M203 X200 Y200 Z12 E120 ; sets maximum feedrates, mm/sec
M204 P1250 R1250 T1250 ; sets acceleration (P, T) and retract acceleration (R), mm/sec^2
M205 X8.00 Y8.00 Z0.40 E4.50 ; sets the jerk limits, mm/sec
M205 S0 T0 ; sets the minimum extruding and travel feed rate, mm/sec
M107
M862.3 P "MK3S" ; printer model check
M862.1 P0.4 ; nozzle diameter check
M115 U3.9.0 ; tell printer latest fw version
G90 ; use absolute coordinates
M83 ; extruder relative mode
M104 S215 ; set extruder temp
M140 S60 ; set bed temp
M190 S60 ; wait for bed temp
M109 S215 ; wait for extruder temp
G28 W ; home all without mesh bed level
G80 ; mesh bed leveling
G1 Y-3.0 F1000.0 ; go outside print area
G92 E0.0
G1 X60.0 E9.0 F1000.0 ; intro line
M73 Q0 S123
M73 P0 R122
G1 X100.0 E12.5 F1000.0 ; intro line
G92 E0.0
M221 S95
G21 ; set units to millimeters
G90 ; use absolute coordinates
M83 ; use relative distances for extrusion
M900 K0.06 ; Filament gcode LA 1.5
M900 K30 ; Filament gcode LA 1.0
;BEFORE_LAYER_CHANGE
G92 E0.0
;0.2


G1 E-0.80000 F2100.00000
G1 Z0.600 F10800.000
;AFTER_LAYER_CHANGE
;0.2
G1 X97.887 Y106.542
G1 Z0.200
G1 E0.80000 F2100.00000
M204 S1000
G1 F1200.000
G1 X97.398 Y105.518 E0.03560
G1 X97.253 Y104.821 E0.02231
G1 X97.293 Y104.111 E0.02231
G1 X97.499 Y103.464 E0.02129
G1 X97.910 Y102.770 E0.02530
G1 X98.377 Y102.249 E0.02192
G1 X99.126 Y101.720 E0.02876
G1 X100.439 Y101.099 E0.04554
G1 X102.867 Y100.421 E0.07905
G1 X106.061 Y99.946 E0.10124
G1 X109.945 Y99.688 E0.12207
G1 X114.427 Y99.621 E0.14054
G1 X121.942 Y99.796 E0.23571
G1 X129.836 Y100.186 E0.24781
G1 X141.650 Y100.993 E0.37129
G1 X149.096 Y101.690 E0.23447
G1 X150.875 Y102.037 E0.05683
G1 X151.400 Y102.277 E0.01809
G1 X151.863 Y102.621 E0.01809
G1 X152.296 Y103.128 E0.02090
G1 X152.592 Y103.720 E0.02078
G1 X152.739 Y104.371 E0.02090
G1 X152.726 Y105.033 E0.02078
G1 X152.463 Y105.879 E0.02777
G1 X151.948 Y106.595 E0.02765
G1 X151.233 Y107.111 E0.02765
G1 X150.387 Y107.375 E0.02777
G1 X122.398 Y110.035 E0.88153
G1 X119.886 Y110.226 E0.07900
G1 X115.150 Y110.379 E0.14857
G1 X112.830 Y110.355 E0.07275
G1 X108.645 Y110.124 E0.13144
G1 X105.071 Y109.677 E0.11292
G1 X102.152 Y109.025 E0.09379
G1 X100.871 Y108.595 E0.04236
G1 X99.908 Y108.163 E0.03308
G1 X98.841 Y107.504 E0.03935
G1 X97.929 Y106.585 E0.04059
G1 X98.196 Y106.321 F10800.000
G1 F1200.000
G1 X97.737 Y105.343 E0.03387
G1 X97.624 Y104.684 E0.02095
G1 X97.700 Y104.017 E0.02107
G1 X97.925 Y103.456 E0.01894
G1 X98.417 Y102.736 E0.02735
G1 X99.559 Y101.903 E0.04432
G1 X100.481 Y101.485 E0.03176
G1 X101.548 Y101.132 E0.03524
G1 X103.005 Y100.778 E0.04700
G1 X106.141 Y100.317 E0.09940
G1 X109.962 Y100.064 E0.12006
G1 X114.424 Y99.998 E0.13990
G1 X121.929 Y100.173 E0.23539
G1 X129.814 Y100.562 E0.24752
G1 X141.621 Y101.369 E0.37108
G1 X149.017 Y102.060 E0.23290
G1 X150.709 Y102.379 E0.05398
G1 X151.159 Y102.573 E0.01538
G1 X151.558 Y102.853 E0.01526
G1 X151.947 Y103.285 E0.01823
G1 X152.221 Y103.802 E0.01835
G1 X152.360 Y104.370 E0.01835
G1 X152.356 Y104.955 E0.01835
G1 X152.135 Y105.692 E0.02414
G1 X151.686 Y106.323 E0.02426
G1 X151.059 Y106.776 E0.02426
G1 X150.320 Y107.003 E0.02426
G1 X122.364 Y109.659 E0.88047
G1 X119.871 Y109.850 E0.07839
G1 X115.142 Y110.002 E0.14838
G1 X112.845 Y109.978 E0.07201
G1 X108.681 Y109.749 E0.13075
G1 X105.137 Y109.306 E0.11200
G1 X102.267 Y108.666 E0.09220
G1 X101.010 Y108.244 E0.04156
G1 X100.069 Y107.822 E0.03236
G1 X99.070 Y107.204 E0.03680
G1 X98.238 Y106.363 E0.03710
G1 F8640.000
G1 X97.737 Y105.343 E-0.26251
G1 X97.624 Y104.684 E-0.15428
G1 X97.700 Y104.017 E-0.15515
G1 X97.925 Y103.456 E-0.13946
G1 X98.044 Y103.283 E-0.04860
G1 E-0.04000 F2100.00000
G1 Z0.800 F10800.000
G1 X96.538 Y107.998
G1 Z0.200
G1 E0.80000 F2100.00000
G1 F1200.000
G1 X95.798 Y106.828 E0.04341
G1 X95.424 Y105.792 E0.03454
G1 X95.280 Y104.724 E0.03378
G1 X95.374 Y103.663 E0.03339
G1 X95.698 Y102.666 E0.03288
G1 X96.340 Y101.589 E0.03932
G1 X97.132 Y100.734 E0.03655
G1 X98.444 Y99.848 E0.04963
G1 X99.709 Y99.279 E0.04350
G1 X101.030 Y98.849 E0.04355
G1 X102.517 Y98.492 E0.04794
G1 X104.118 Y98.213 E0.05095
G1 X105.866 Y97.996 E0.05523
G1 X107.821 Y97.834 E0.06150
G1 X109.871 Y97.730 E0.06437
G1 X112.112 Y97.674 E0.07029
G1 X114.453 Y97.661 E0.07342
G1 X116.887 Y97.687 E0.07629
G1 X119.435 Y97.749 E0.07992
G1 X124.650 Y97.951 E0.16363
G1 X129.942 Y98.229 E0.16616
G1 X135.033 Y98.545 E0.15993
G1 X139.706 Y98.877 E0.14691
G1 X145.464 Y99.347 E0.18113
G1 X148.249 Y99.616 E0.08772
G1 X149.316 Y99.743 E0.03371
G1 X150.312 Y99.900 E0.03160
G1 X152.158 Y100.348 E0.05956
G1 X153.014 Y100.835 E0.03089
G1 X153.719 Y101.501 E0.03041
G1 X154.381 Y102.509 E0.03781
G1 X154.737 Y103.632 E0.03694
G1 X154.776 Y104.635 E0.03147
G1 X154.531 Y106.159 E0.04838
G1 X154.087 Y107.261 E0.03727
G1 X153.326 Y108.214 E0.03822
G1 X152.362 Y108.910 E0.03731
G1 X150.921 Y109.393 E0.04764
G1 X150.272 Y109.412 E0.02035
G1 X148.969 Y109.288 E0.04105
G1 X148.273 Y109.248 E0.02185
G1 X147.221 Y109.214 E0.03301
G1 X145.854 Y109.201 E0.04286
G1 X144.204 Y109.224 E0.05173
G1 X142.309 Y109.301 E0.05948
G1 X140.200 Y109.458 E0.06629
G1 X137.912 Y109.706 E0.07218
G1 X135.487 Y110.037 E0.07674
G1 X132.977 Y110.431 E0.07966
G1 X127.850 Y111.310 E0.16308
G1 X125.158 Y111.704 E0.08533
G1 X122.622 Y111.982 E0.07998
G1 X120.086 Y112.177 E0.07976
G1 X117.583 Y112.295 E0.07855
G1 X115.168 Y112.339 E0.07574
G1 X112.808 Y112.314 E0.07400
G1 X110.628 Y112.229 E0.06841
G1 X108.512 Y112.080 E0.06649
G1 X106.591 Y111.878 E0.06058
G1 X104.782 Y111.615 E0.05730
G1 X103.087 Y111.286 E0.05415
G1 X101.629 Y110.915 E0.04717
G1 X100.193 Y110.433 E0.04750
G1 X98.846 Y109.822 E0.04636
G1 X97.688 Y109.091 E0.04293
G1 X96.582 Y108.039 E0.04788
G1 X96.842 Y107.767 F10800.000
G1 F1200.000
G1 X96.129 Y106.646 E0.04166
G1 X95.786 Y105.685 E0.03199
G1 X95.656 Y104.697 E0.03125
G1 X95.748 Y103.720 E0.03074
G1 X96.050 Y102.805 E0.03023
G1 X96.653 Y101.801 E0.03674
G1 X97.393 Y101.007 E0.03403
G1 X98.614 Y100.185 E0.04613
G1 X99.836 Y99.634 E0.04204
G1 X101.140 Y99.210 E0.04299
G1 X102.588 Y98.863 E0.04669
G1 X104.169 Y98.587 E0.05033
G1 X105.901 Y98.371 E0.05472
G1 X107.843 Y98.210 E0.06109
G1 X109.883 Y98.107 E0.06404
G1 X112.116 Y98.051 E0.07003
G1 X114.451 Y98.038 E0.07322
G1 X116.879 Y98.064 E0.07613
G1 X119.424 Y98.126 E0.07983
G1 X124.634 Y98.328 E0.16346
G1 X129.921 Y98.606 E0.16601
G1 X135.008 Y98.922 E0.15982
G1 X139.677 Y99.252 E0.14674
G1 X145.432 Y99.722 E0.18105
G1 X148.206 Y99.991 E0.08739
G1 X149.268 Y100.117 E0.03353
G1 X150.232 Y100.269 E0.03058
G1 X151.997 Y100.690 E0.05690
G1 X152.774 Y101.126 E0.02794
G1 X153.416 Y101.727 E0.02758
G1 X154.051 Y102.693 E0.03624
G1 X154.369 Y103.719 E0.03368
G1 X154.401 Y104.594 E0.02743
G1 X154.162 Y106.077 E0.04712
G1 X153.748 Y107.094 E0.03440
G1 X153.083 Y107.925 E0.03338
G1 X152.212 Y108.563 E0.03387
G1 X150.880 Y109.017 E0.04411
G1 X150.296 Y109.035 E0.01833
G1 X148.997 Y108.912 E0.04089
G1 X148.290 Y108.871 E0.02222
G1 X147.229 Y108.837 E0.03329
G1 X145.853 Y108.824 E0.04314
G1 X144.194 Y108.847 E0.05203
G1 X142.287 Y108.924 E0.05984
G1 X140.166 Y109.082 E0.06669
G1 X137.866 Y109.332 E0.07254
G1 X135.432 Y109.663 E0.07702
G1 X132.915 Y110.059 E0.07987
G1 X127.789 Y110.938 E0.16309
G1 X125.113 Y111.329 E0.08479
G1 X122.584 Y111.607 E0.07978
G1 X120.059 Y111.801 E0.07939
G1 X117.568 Y111.918 E0.07820
G1 X115.164 Y111.962 E0.07540
G1 X112.815 Y111.937 E0.07366
G1 X110.645 Y111.852 E0.06806
G1 X108.542 Y111.704 E0.06612
G1 X106.634 Y111.503 E0.06016
G1 X104.850 Y111.244 E0.05653
G1 X103.164 Y110.917 E0.05383
G1 X101.729 Y110.551 E0.04644
G1 X100.322 Y110.079 E0.04654
G1 X99.014 Y109.485 E0.04504
G1 X97.906 Y108.783 E0.04112
G1 X96.885 Y107.808 E0.04426
G1 X97.146 Y107.536 F10800.000
G1 F1200.000
G1 X97.094 Y107.486 E0.00227
G1 X96.476 Y106.499 E0.03652
G1 X96.158 Y105.615 E0.02946
G1 X96.033 Y104.669 E0.02991
G1 X96.121 Y103.779 E0.02803
G1 X96.400 Y102.945 E0.02758
G1 X96.965 Y102.013 E0.03417
G1 X97.653 Y101.281 E0.03151
G1 X98.783 Y100.522 E0.04268
G1 X99.962 Y99.989 E0.04057
G1 X101.249 Y99.571 E0.04243
G1 X102.659 Y99.233 E0.04544
G1 X104.220 Y98.960 E0.04971
G1 X105.936 Y98.747 E0.05421
G1 X107.865 Y98.587 E0.06069
G1 X109.895 Y98.484 E0.06372
G1 X112.120 Y98.428 E0.06978
G1 X114.448 Y98.415 E0.07302
G1 X116.871 Y98.441 E0.07596
G1 X119.414 Y98.502 E0.07975
G1 X124.618 Y98.705 E0.16329
G1 X129.900 Y98.982 E0.16586
G1 X134.984 Y99.298 E0.15970
G1 X139.647 Y99.628 E0.14657
G1 X145.400 Y100.098 E0.18097
G1 X148.164 Y100.366 E0.08707
G1 X149.220 Y100.491 E0.03336
G1 X150.153 Y100.638 E0.02959
G1 X151.836 Y101.032 E0.05420
G1 X152.570 Y101.444 E0.02638
G1 X153.115 Y101.955 E0.02343
G1 X153.700 Y102.833 E0.03310
G1 X153.993 Y103.761 E0.03049
G1 X154.025 Y104.553 E0.02486
G1 X153.793 Y105.997 E0.04586
G1 X153.435 Y106.882 E0.02992
G1 X152.837 Y107.638 E0.03023
G1 X152.060 Y108.217 E0.03040
G1 X150.838 Y108.641 E0.04055
G1 X150.319 Y108.659 E0.01628
G1 X149.026 Y108.536 E0.04072
G1 X148.307 Y108.494 E0.02259
G1 X147.237 Y108.460 E0.03358
G1 X145.852 Y108.447 E0.04341
G1 X144.184 Y108.470 E0.05232
G1 X142.265 Y108.548 E0.06020
G1 X140.131 Y108.707 E0.06709
G1 X137.820 Y108.958 E0.07290
G1 X135.377 Y109.290 E0.07730
G1 X132.854 Y109.687 E0.08007
G1 X127.727 Y110.566 E0.16310
G1 X125.069 Y110.955 E0.08425
G1 X122.546 Y111.231 E0.07957
G1 X120.033 Y111.425 E0.07901
G1 X117.553 Y111.541 E0.07784
G1 X115.160 Y111.584 E0.07506
G1 X112.827 Y111.561 E0.07315
G1 X110.663 Y111.475 E0.06789
G1 X108.578 Y111.329 E0.06554
G1 X106.677 Y111.128 E0.05994
G1 X104.908 Y110.872 E0.05604
G1 X103.242 Y110.548 E0.05324
G1 X101.829 Y110.187 E0.04571
G1 X100.451 Y109.725 E0.04558
G1 X99.183 Y109.147 E0.04371
G1 X98.125 Y108.475 E0.03930
G1 X97.190 Y107.578 E0.04063
G1 F8640.000
G1 X97.094 Y107.486 E-0.03055
G1 X96.476 Y106.499 E-0.26896
G1 X96.158 Y105.615 E-0.21693
G1 X96.033 Y104.669 E-0.22024
G1 X96.043 Y104.569 E-0.02331
G1 E-0.04000 F2100.00000
G1 Z0.800 F10800.000
G1 X114.446 Y98.793
G1 Z0.200
G1 E0.80000 F2100.00000
G1 F1200.000
G1 X116.866 Y98.819 E0.07588
G1 X119.403 Y98.879 E0.07959
G1 X124.602 Y99.081 E0.16312
G1 X129.880 Y99.359 E0.16572
G1 X134.960 Y99.674 E0.15959
G1 X139.617 Y100.004 E0.14640
G1 X145.368 Y100.474 E0.18090
G1 X148.121 Y100.740 E0.08674
G1 X149.172 Y100.865 E0.03318
G1 X150.075 Y101.007 E0.02865
G1 X151.675 Y101.375 E0.05148
G1 X152.365 Y101.762 E0.02481
G1 X152.813 Y102.181 E0.01925
G1 X153.371 Y103.020 E0.03159
G1 X153.618 Y103.802 E0.02572
G1 X153.650 Y104.512 E0.02228
G1 X153.424 Y105.917 E0.04459
G1 X153.121 Y106.671 E0.02549
G1 X152.589 Y107.353 E0.02712
G1 X151.905 Y107.872 E0.02692
G1 X150.794 Y108.265 E0.03695
G1 X150.342 Y108.282 E0.01419
G1 X149.055 Y108.160 E0.04054
G1 X148.324 Y108.118 E0.02296
G1 X147.244 Y108.083 E0.03386
G1 X145.851 Y108.070 E0.04368
G1 X144.934 Y108.082 E0.02877
G1 F8640.000
G1 X145.851 Y108.070 E-0.21189
G1 X147.244 Y108.083 E-0.32167
G1 X148.225 Y108.114 E-0.22644
G1 E-0.04000 F2100.00000
G1 Z0.800 F10800.000
G1 X134.056 Y109.116
G1 Z0.200
G1 E0.80000 F2100.00000
G1 F1200.000
G1 X132.793 Y109.315 E0.04009
G1 X127.666 Y110.193 E0.16311
G1 X125.024 Y110.580 E0.08372
G1 X122.508 Y110.856 E0.07937
G1 X120.007 Y111.049 E0.07863
G1 X117.538 Y111.165 E0.07749
G1 X115.156 Y111.207 E0.07472
G1 X112.839 Y111.184 E0.07264
G1 X110.681 Y111.099 E0.06771
G1 X108.614 Y110.953 E0.06495
G1 X106.720 Y110.754 E0.05972
G1 X104.967 Y110.499 E0.05554
G1 X103.319 Y110.179 E0.05264
G1 X101.929 Y109.824 E0.04497
G1 X100.581 Y109.370 E0.04461
G1 X99.351 Y108.809 E0.04237
G1 X98.343 Y108.167 E0.03747
G1 X97.373 Y107.231 E0.04228
G1 X96.824 Y106.351 E0.03254
G1 X96.528 Y105.543 E0.02696
G1 X96.410 Y104.682 E0.02725
G1 X96.485 Y103.878 E0.02530
G1 X96.751 Y103.086 E0.02620
G1 X97.276 Y102.228 E0.03154
G1 X97.912 Y101.555 E0.02901
G1 X98.953 Y100.860 E0.03926
G1 X100.089 Y100.345 E0.03911
G1 X101.359 Y99.932 E0.04186
G1 X102.729 Y99.604 E0.04419
G1 X104.272 Y99.334 E0.04909
G1 X105.971 Y99.122 E0.05370
G1 X107.887 Y98.963 E0.06028
G1 X109.907 Y98.860 E0.06340
G1 X112.124 Y98.805 E0.06953
G1 X114.446 Y98.793 E0.07282
G1 F8640.000
G1 X112.124 Y98.805 E-0.53623
G1 X111.155 Y98.829 E-0.22377
G1 E-0.04000 F2100.00000
G1 Z0.800 F10800.000
G1 X116.860 Y99.196
G1 Z0.200
G1 E0.80000 F2100.00000
G1 F1200.000
G1 X119.393 Y99.256 E0.07943
G1 X124.586 Y99.458 E0.16295
G1 X129.859 Y99.735 E0.16557
G1 X134.936 Y100.051 E0.15948
G1 X139.588 Y100.380 E0.14622
G1 X145.336 Y100.849 E0.18082
G1 X148.079 Y101.115 E0.08642
G1 X149.125 Y101.239 E0.03301
G1 X150.011 Y101.378 E0.02813
G1 X151.515 Y101.717 E0.04834
G1 X152.161 Y102.079 E0.02321
G1 X152.511 Y102.408 E0.01507
G1 X153.042 Y103.207 E0.03006
G1 X153.243 Y103.846 E0.02100
G1 X153.274 Y104.472 E0.01968
G1 X153.055 Y105.837 E0.04332
G1 X152.806 Y106.463 E0.02113
G1 X152.338 Y107.071 E0.02405
G1 X151.747 Y107.528 E0.02342
G1 X150.749 Y107.890 E0.03331
G1 X150.365 Y107.906 E0.01205
G1 X149.084 Y107.784 E0.04035
G1 X148.457 Y107.748 E0.01969
G1 F8640.000
G1 X149.084 Y107.784 E-0.14500
G1 X150.365 Y107.906 E-0.29713
G1 X150.749 Y107.890 E-0.08875
G1 X151.682 Y107.552 E-0.22911
G1 E-0.04000 F2100.00000
G1 Z0.800 F10800.000
G1 X128.810 Y109.615
G1 Z0.200
G1 E0.80000 F2100.00000
G1 F1200.000
G1 X127.604 Y109.821 E0.03835
G1 X124.979 Y110.206 E0.08318
G1 X122.470 Y110.481 E0.07917
G1 X119.981 Y110.673 E0.07826
G1 X117.523 Y110.788 E0.07714
G1 X115.151 Y110.830 E0.07439
G1 X112.851 Y110.807 E0.07214
G1 X110.699 Y110.722 E0.06753
G1 X108.651 Y110.578 E0.06437
G1 X106.763 Y110.379 E0.05950
G1 X105.026 Y110.127 E0.05505
G1 X103.397 Y109.810 E0.05204
G1 X102.030 Y109.460 E0.04424
G1 X100.710 Y109.016 E0.04364
G1 X99.520 Y108.472 E0.04103
G1 X98.563 Y107.860 E0.03563
G1 X97.652 Y106.977 E0.03977
G1 X97.171 Y106.203 E0.02857
G1 X96.890 Y105.433 E0.02570
G1 X96.787 Y104.655 E0.02462
G1 X96.858 Y103.937 E0.02262
G1 X97.084 Y103.263 E0.02229
G1 X97.565 Y102.470 E0.02907
G1 X98.140 Y101.856 E0.02639
G1 X99.123 Y101.196 E0.03711
G1 X100.235 Y100.692 E0.03828
G1 X101.454 Y100.297 E0.04017
G1 X102.811 Y99.972 E0.04377
G1 X104.323 Y99.707 E0.04811
G1 X106.014 Y99.497 E0.05343
G1 X107.909 Y99.340 E0.05964
G1 X109.923 Y99.237 E0.06323
G1 X112.127 Y99.182 E0.06912
G1 X114.443 Y99.170 E0.07261
G1 X116.860 Y99.196 E0.07579
G1 F8640.000
G1 X114.443 Y99.170 E-0.55814
G1 X113.569 Y99.174 E-0.20186
G1 E-0.04000 F2100.00000
G1 Z0.800 F10800.000
G1 X133.955 Y108.369
G1 Z0.200
G1 E0.80000 F2100.00000
G1 F1200.000
G1 X135.213 Y108.171 E0.03993
G1 X137.683 Y107.835 E0.07815
G1 X140.028 Y107.580 E0.07398
G1 X142.200 Y107.418 E0.06829
G1 X144.153 Y107.339 E0.06127
G1 X144.903 Y107.329 E0.02353
G1 F8640.000
G1 X144.153 Y107.339 E-0.17327
G1 X142.200 Y107.418 E-0.45120
G1 X141.615 Y107.462 E-0.13553
G1 E-0.04000 F2100.00000
G1 Z0.800 F10800.000
G1 X150.550 Y107.522
G1 Z0.200
G1 E0.80000 F2100.00000
G1 F1200.000
G1 X150.703 Y107.515 E0.00481
G1 X151.540 Y107.212 E0.02792
G1 X152.087 Y106.788 E0.02169
G1 X152.489 Y106.257 E0.02090
G1 X152.569 Y106.054 E0.00682
G1 F8640.000
G1 X152.489 Y106.257 E-0.05022
G1 X152.087 Y106.788 E-0.15389
G1 X151.540 Y107.212 E-0.15974
G1 X150.703 Y107.515 E-0.20560
G1 X150.550 Y107.522 E-0.03541
G1 E-0.19515 F2100.00000
G1 Z0.800 F10800.000
G1 X152.882 Y104.148
G1 Z0.200
G1 E0.80000 F2100.00000
G1 F1200.000
G1 X152.868 Y103.893 E0.00802
G1 X152.692 Y103.349 E0.01790
G1 X152.212 Y102.639 E0.02688
G1 X151.922 Y102.371 E0.01238
G1 X151.594 Y102.186 E0.01181
G1 F8640.000
G1 X151.922 Y102.371 E-0.08694
G1 X152.212 Y102.639 E-0.09117
G1 X152.692 Y103.349 E-0.19798
G1 X152.868 Y103.893 E-0.13184
G1 X152.882 Y104.148 E-0.05906
G1 E-0.23302 F2100.00000
G1 Z0.800 F10800.000
G1 X128.707 Y108.867
