; generated by PrusaSlicer 2.2.0 on 2020-06-29 at 17:20:25 UTC

; 

; external perimeters extrusion width = 0.45mm
; perimeters extrusion width = 0.45mm
; infill extrusion width = 0.45mm
; solid infill extrusion width = 0.45mm
; top infill extrusion width = 0.40mm
; support material extrusion width = 0.35mm
; first layer extrusion width = 0.42mm

M73 P0 R95
M73 Q0 S97
M201 X1000 Y1000 Z200 E5000 ; sets maximum accelerations, mm/sec^2
M203 X200 Y200 Z12 E120 ; sets maximum feedrates, mm/sec
M204 P1250 R1250 T1250 ; sets acceleration (P, T) and retract acceleration (R), mm/sec^2
M205 X8.00 Y8.00 Z0.40 E4.50 ; sets the jerk limits, mm/sec
M205 S0 T0 ; sets the minimum extruding and travel feed rate, mm/sec
M107
M862.3 P "MK3S" ; printer model check
M862.1 P0.4 ; nozzle diameter check
M115 U3.9.0 ; tell printer latest fw version
G90 ; use absolute coordinates
M83 ; extruder relative mode
M104 S215 ; set extruder temp
M140 S60 ; set bed temp
M190 S60 ; wait for bed temp
M109 S215 ; wait for extruder temp
G28 W ; home all without mesh bed level
G80 ; mesh bed leveling
G1 Y-3.0 F1000.0 ; go outside print area
G92 E0.0
G1 X60.0 E9.0 F1000.0 ; intro line
M73 Q0 S97
M73 P0 R94
G1 X100.0 E12.5 F1000.0 ; intro line
G92 E0.0
M221 S95
G21 ; set units to millimeters
G90 ; use absolute coordinates
M83 ; use relative distances for extrusion
M900 K0.06 ; Filament gcode LA 1.5
M900 K30 ; Filament gcode LA 1.0
;BEFORE_LAYER_CHANGE
G92 E0.0
;0.2


G1 E-0.80000 F2100.00000
G1 Z0.600 F10800.000
;AFTER_LAYER_CHANGE
;0.2
G1 X152.149 Y53.573
G1 Z0.200
G1 E0.80000 F2100.00000
M204 S1000
G1 F1200.000
G1 X152.626 Y54.399 E0.02989
G1 X152.737 Y54.923 E0.01680
G1 X152.748 Y55.661 E0.02316
G1 X152.044 Y155.132 E3.11890
G1 X151.917 Y155.849 E0.02284
G1 X151.581 Y156.491 E0.02272
G1 X151.067 Y157.002 E0.02272
G1 X150.420 Y157.336 E0.02284
G1 X149.876 Y157.449 E0.01740
G1 X122.090 Y159.836 E0.87444
G1 X118.238 Y160.101 E0.12106
G1 X114.705 Y160.185 E0.11079
G1 X111.152 Y160.114 E0.11142
G1 X108.215 Y159.920 E0.09230
G1 X105.974 Y159.667 E0.07070
G1 X103.093 Y159.149 E0.09180
G1 X101.356 Y158.670 E0.05648
G1 X99.761 Y158.021 E0.05400
G1 X98.688 Y157.349 E0.03967
G1 X97.893 Y156.549 E0.03537
G1 X97.426 Y155.665 E0.03135
G1 X97.290 Y154.836 E0.02635
G1 X97.189 Y104.817 E1.56831
G1 X98.027 Y54.969 E1.56317
G1 X98.172 Y54.439 E0.01724
G1 X98.428 Y53.936 E0.01768
G1 X98.771 Y53.501 E0.01736
G1 X99.240 Y53.082 E0.01972
G1 X100.651 Y52.318 E0.05030
G1 X102.263 Y51.788 E0.05321
G1 X104.253 Y51.367 E0.06379
G1 X107.529 Y50.976 E0.10343
G1 X111.740 Y50.776 E0.13217
G1 X114.972 Y50.750 E0.10136
G1 X123.566 Y50.977 E0.26956
G1 X129.473 Y51.273 E0.18544
G1 X148.785 Y52.578 E0.60690
G1 X150.752 Y52.804 E0.06207
G1 X151.390 Y53.003 E0.02095
G1 X152.101 Y53.537 E0.02789
G1 F8640.000
G1 X152.626 Y54.399 E-0.23294
G1 X152.737 Y54.923 E-0.12375
G1 X152.748 Y55.661 E-0.17057
G1 X152.741 Y56.669 E-0.23274
G1 E-0.04000 F2100.00000
G1 Z0.800 F10800.000
G1 X149.335 Y154.759
G1 Z0.200
G1 E0.80000 F2100.00000
G1 F1200.000
G1 X149.335 Y154.798 E0.00122
G1 X147.827 Y154.664 E0.04745
G1 X146.083 Y154.595 E0.05475
G1 X144.176 Y154.580 E0.05978
G1 X143.196 Y154.601 E0.03073
G1 X140.840 Y154.579 E0.07389
G1 X139.450 Y154.590 E0.04358
G1 X136.697 Y154.857 E0.08672
G1 X133.961 Y155.215 E0.08652
G1 X124.932 Y156.703 E0.28691
G1 X121.882 Y157.056 E0.09626
G1 X118.157 Y157.315 E0.11710
G1 X114.701 Y157.398 E0.10839
G1 X111.245 Y157.328 E0.10839
G1 X108.455 Y157.143 E0.08767
G1 X106.375 Y156.909 E0.06561
G1 X104.830 Y156.663 E0.04906
G1 X103.685 Y156.426 E0.03664
G1 X102.841 Y156.209 E0.02734
G1 X102.220 Y156.020 E0.02037
G1 X101.572 Y155.783 E0.02162
G1 X101.005 Y155.526 E0.01953
G1 X100.496 Y155.221 E0.01859
G1 X100.306 Y155.073 E0.00754
G1 X100.103 Y154.843 E0.00964
G1 X100.409 Y154.614 E0.01198
G1 X101.010 Y154.325 E0.02091
G1 X101.732 Y154.067 E0.02406
G1 X102.494 Y153.857 E0.02477
G1 X103.671 Y153.606 E0.03774
G1 X104.435 Y153.479 E0.02428
G1 X105.464 Y153.341 E0.03257
G1 X106.629 Y153.221 E0.03670
G1 X108.190 Y153.106 E0.04907
G1 X110.540 Y153.006 E0.07378
G1 X114.075 Y152.967 E0.11084
G1 X121.812 Y153.153 E0.24266
G1 X131.866 Y153.679 E0.31564
G1 X139.346 Y154.172 E0.23506
G1 X142.351 Y154.209 E0.09423
G1 X143.345 Y154.244 E0.03117
G1 X144.835 Y154.344 E0.04685
G1 X147.868 Y154.587 E0.09539
G1 X148.654 Y154.665 E0.02477
G1 X149.275 Y154.751 E0.01967
G1 X149.314 Y154.792 F10800.000
G1 F8640.000
G1 X149.335 Y154.798 E-0.01749
G1 X147.827 Y154.664 E-0.34943
G1 X146.126 Y154.597 E-0.39307
G1 E-0.04000 F2100.00000
G1 Z0.800 F10800.000
G1 X137.329 Y154.417
G1 Z0.200
G1 E0.80000 F2100.00000
G1 F1200.000
G1 X136.654 Y154.482 E0.02126
G1 X133.906 Y154.842 E0.08692
G1 X124.880 Y156.329 E0.28682
G1 X121.848 Y156.681 E0.09570
G1 X118.139 Y156.938 E0.11656
G1 X114.700 Y157.021 E0.10787
G1 X111.261 Y156.951 E0.10785
G1 X108.488 Y156.767 E0.08713
G1 X106.426 Y156.535 E0.06507
G1 X104.898 Y156.292 E0.04852
G1 X103.770 Y156.058 E0.03609
G1 X102.943 Y155.846 E0.02679
G1 X102.339 Y155.662 E0.01978
G1 X101.715 Y155.434 E0.02085
G1 X101.180 Y155.191 E0.01841
G1 X100.693 Y154.896 E0.01786
G1 X101.155 Y154.674 E0.01609
G1 X101.846 Y154.426 E0.02300
G1 X102.583 Y154.223 E0.02398
G1 X103.741 Y153.976 E0.03712
G1 X104.491 Y153.852 E0.02383
G1 X105.509 Y153.715 E0.03221
G1 X106.662 Y153.596 E0.03635
G1 X108.211 Y153.483 E0.04871
G1 X110.551 Y153.383 E0.07341
G1 X114.073 Y153.344 E0.11045
G1 X121.798 Y153.530 E0.24229
G1 X131.843 Y154.056 E0.31539
G1 X137.269 Y154.413 E0.17050
G1 X137.518 Y154.414 F10800.000
G1 F1200.000
G1 X137.821 Y154.409 E0.00808
G1 X138.731 Y154.395 E0.01407
G1 X139.372 Y154.385 E0.00273
G1 F8640.000
G1 X138.731 Y154.395 E-0.14804
G1 E-0.65196 F2100.00000
G1 Z0.800 F10800.000
G1 X135.053 Y154.479
G1 Z0.200
G1 E0.80000 F2100.00000
G1 F1200.000
G1 X134.337 Y154.502 E0.00572
G1 X133.618 Y154.529 E0.01394
G1 X133.277 Y154.831 F10800.000
G1 F1200.000
G1 X132.852 Y154.406 E0.01898
G1 X132.277 Y154.368 E0.01816
G1 X132.669 Y154.759 E0.01746
G1 X132.208 Y154.835 E0.01473
G1 X131.705 Y154.332 E0.02246
G1 X131.138 Y154.302 E0.01789
G1 X131.747 Y154.911 E0.02717
G1 X131.287 Y154.987 E0.01473
G1 X130.572 Y154.272 E0.03187
G1 X130.006 Y154.243 E0.01789
G1 X130.826 Y155.063 E0.03658
G1 X130.365 Y155.139 E0.01473
G1 X129.440 Y154.213 E0.04129
G1 X128.874 Y154.184 E0.01789
G1 X129.905 Y155.215 E0.04600
G1 X129.444 Y155.290 E0.01473
G1 X128.307 Y154.154 E0.05071
G1 X127.741 Y154.124 E0.01789
G1 X128.983 Y155.366 E0.05542
G1 X128.523 Y155.442 E0.01473
G1 X127.175 Y154.095 E0.06012
G1 X126.609 Y154.065 E0.01789
G1 X128.062 Y155.518 E0.06483
G1 X127.601 Y155.594 E0.01473
G1 X126.043 Y154.035 E0.06954
G1 X125.477 Y154.006 E0.01789
G1 X127.141 Y155.670 E0.07425
G1 X126.680 Y155.746 E0.01473
G1 X124.910 Y153.976 E0.07896
G1 X124.344 Y153.946 E0.01789
G1 X126.219 Y155.822 E0.08367
G1 X125.759 Y155.898 E0.01473
G1 X123.778 Y153.917 E0.08837
G1 X123.212 Y153.887 E0.01789
G1 X125.298 Y155.973 E0.09308
G1 X124.837 Y156.049 E0.01473
G1 X122.646 Y153.857 E0.09779
G1 X122.079 Y153.828 E0.01789
G1 X124.357 Y156.105 E0.10160
G1 X123.876 Y156.161 E0.01527
G1 X121.521 Y153.806 E0.10505
G1 X120.971 Y153.793 E0.01735
G1 X123.395 Y156.217 E0.10813
G1 X122.914 Y156.272 E0.01527
G1 X120.422 Y153.780 E0.11121
G1 X119.872 Y153.766 E0.01735
G1 X122.434 Y156.328 E0.11429
G1 X121.953 Y156.384 E0.01527
G1 X119.322 Y153.753 E0.11737
G1 X118.772 Y153.740 E0.01735
G1 X121.457 Y156.425 E0.11976
G1 X120.955 Y156.459 E0.01587
G1 X118.223 Y153.727 E0.12190
G1 X117.673 Y153.714 E0.01735
G1 X120.453 Y156.494 E0.12405
G1 X119.952 Y156.529 E0.01587
G1 X117.123 Y153.700 E0.12619
G1 X116.573 Y153.687 E0.01735
G1 X119.450 Y156.564 E0.12833
G1 X118.948 Y156.599 E0.01587
G1 X116.024 Y153.674 E0.13047
G1 X115.474 Y153.661 E0.01735
G1 X118.446 Y156.633 E0.13261
G1 X117.937 Y156.660 E0.01610
G1 X114.924 Y153.648 E0.13439
G1 X114.374 Y153.634 E0.01735
G1 X117.413 Y156.673 E0.13555
G1 X116.889 Y156.685 E0.01653
G1 X113.833 Y153.630 E0.13632
G1 X113.303 Y153.636 E0.01674
G1 X116.365 Y156.698 E0.13662
G1 X115.841 Y156.710 E0.01653
G1 X112.772 Y153.641 E0.13692
G1 X112.241 Y153.647 E0.01674
G1 X115.317 Y156.723 E0.13722
G1 X114.793 Y156.736 E0.01653
G1 X111.710 Y153.653 E0.13752
G1 X111.180 Y153.659 E0.01674
G1 X114.249 Y156.729 E0.13696
G1 X113.702 Y156.718 E0.01728
G1 X110.649 Y153.665 E0.13621
G1 X110.558 Y153.666 E0.00286
G1 X110.132 Y153.684 E0.01347
G1 X113.154 Y156.707 E0.13486
G1 X112.607 Y156.696 E0.01728
G1 X109.617 Y153.706 E0.13339
G1 X109.102 Y153.728 E0.01625
G1 X112.059 Y156.685 E0.13192
G1 X111.512 Y156.674 E0.01728
G1 X108.588 Y153.750 E0.13045
G1 X108.077 Y153.776 E0.01612
G1 X110.949 Y156.647 E0.12810
G1 X110.374 Y156.609 E0.01817
G1 X107.578 Y153.813 E0.12476
G1 X107.078 Y153.849 E0.01581
G1 X109.799 Y156.571 E0.12142
G1 X109.225 Y156.533 E0.01817
G1 X106.581 Y153.889 E0.11795
G1 X106.094 Y153.939 E0.01543
G1 X108.650 Y156.495 E0.11401
G1 X108.052 Y156.434 E0.01895
G1 X105.608 Y153.989 E0.10905
G1 X105.133 Y154.051 E0.01511
G1 X107.448 Y156.365 E0.10326
G1 X106.843 Y156.297 E0.01920
G1 X104.660 Y154.114 E0.09739
G1 X104.196 Y154.187 E0.01481
G1 X106.226 Y156.217 E0.09053
G1 X105.587 Y156.115 E0.02038
G1 X103.738 Y154.266 E0.08249
G1 X103.296 Y154.360 E0.01427
G1 X104.949 Y156.013 E0.07375
G1 X104.273 Y155.873 E0.02179
G1 X102.854 Y154.454 E0.06331
G1 X102.423 Y154.560 E0.01399
G1 X103.581 Y155.718 E0.05163
G1 X102.848 Y155.522 E0.02392
G1 X102.003 Y154.676 E0.03771
G1 X101.604 Y154.814 E0.01332
G1 X102.327 Y155.537 E0.03227
G1 F8640.000
G1 X101.604 Y154.814 E-0.23617
G1 X102.003 Y154.676 E-0.09750
G1 X102.848 Y155.522 E-0.27599
G1 X103.477 Y155.690 E-0.15034
G1 E-0.04000 F2100.00000
G1 Z0.800 F10800.000
G1 X100.072 Y104.947
G1 Z0.200
G1 E0.80000 F2100.00000
G1 F1200.000
G1 X100.001 Y104.848 E0.00382
G1 X100.270 Y104.643 E0.01061
G1 X100.662 Y104.442 E0.01380
G1 X101.343 Y104.168 E0.02302
G1 X102.000 Y103.966 E0.02156
G1 X103.021 Y103.720 E0.03293
G1 X103.751 Y103.580 E0.02330
G1 X104.581 Y103.450 E0.02633
G1 X105.696 Y103.310 E0.03525
G1 X106.958 Y103.191 E0.03972
G1 X108.648 Y103.082 E0.05310
G1 X111.192 Y102.995 E0.07983
G1 X115.015 Y102.981 E0.11986
G1 X128.743 Y103.507 E0.43076
G1 X138.535 Y104.188 E0.30777
G1 X139.523 Y104.227 E0.03099
G1 X142.470 Y104.263 E0.09242
G1 X148.824 Y104.706 E0.19970
G1 X149.231 Y104.764 E0.01290
G1 X149.232 Y104.803 E0.00124
G1 X147.948 Y104.685 E0.04043
G1 X146.548 Y104.619 E0.04393
G1 X144.863 Y104.586 E0.05285
G1 X143.101 Y104.600 E0.05525
G1 X142.150 Y104.629 E0.02983
G1 X139.758 Y104.614 E0.07500
G1 X138.313 Y104.683 E0.04534
G1 X135.139 Y105.043 E0.10017
G1 X131.595 Y105.584 E0.11241
G1 X126.899 Y106.392 E0.14938
G1 X124.262 Y106.787 E0.08362
G1 X121.041 Y107.129 E0.10156
G1 X118.048 Y107.322 E0.09403
G1 X115.049 Y107.403 E0.09405
G1 X112.051 Y107.369 E0.09402
G1 X109.059 Y107.209 E0.09396
G1 X106.648 Y106.965 E0.07597
G1 X105.036 Y106.724 E0.05110
G1 X103.841 Y106.491 E0.03819
G1 X102.958 Y106.276 E0.02848
G1 X102.236 Y106.065 E0.02357
G1 X101.387 Y105.756 E0.02835
G1 X100.829 Y105.494 E0.01931
G1 X100.363 Y105.204 E0.01721
G1 X100.117 Y104.986 E0.01029
G1 X100.110 Y104.831 F10800.000
G1 X100.591 Y104.902
G1 F1200.000
G1 X100.819 Y104.785 E0.00802
G1 X101.469 Y104.524 E0.02197
G1 X102.100 Y104.330 E0.02070
G1 X103.101 Y104.089 E0.03229
G1 X103.816 Y103.952 E0.02283
G1 X104.633 Y103.823 E0.02595
G1 X105.737 Y103.685 E0.03488
G1 X106.987 Y103.567 E0.03937
G1 X108.666 Y103.459 E0.05275
G1 X111.199 Y103.373 E0.07947
G1 X115.008 Y103.358 E0.11943
G1 X128.723 Y103.883 E0.43032
G1 X136.964 Y104.456 E0.25902
G1 X135.089 Y104.669 E0.05916
G1 X131.534 Y105.212 E0.11275
G1 X126.840 Y106.020 E0.14936
G1 X124.214 Y106.413 E0.08324
G1 X121.009 Y106.753 E0.10106
G1 X118.031 Y106.946 E0.09356
G1 X115.047 Y107.025 E0.09361
G1 X112.063 Y106.992 E0.09355
G1 X109.088 Y106.833 E0.09343
G1 X106.695 Y106.591 E0.07541
G1 X105.100 Y106.353 E0.05055
G1 X103.921 Y106.122 E0.03766
G1 X103.055 Y105.912 E0.02794
G1 X102.354 Y105.707 E0.02292
G1 X101.532 Y105.407 E0.02744
G1 X101.010 Y105.162 E0.01808
G1 X100.642 Y104.933 E0.01357
G1 F8640.000
G1 X100.819 Y104.785 E-0.05327
G1 X101.469 Y104.524 E-0.16180
G1 X102.100 Y104.330 E-0.15242
G1 X103.101 Y104.089 E-0.23778
G1 X103.759 Y103.963 E-0.15474
G1 E-0.04000 F2100.00000
G1 Z0.800 F10800.000
G1 X102.202 Y105.531
G1 Z0.200
G1 E0.80000 F2100.00000
G1 F1200.000
G1 X101.491 Y104.820 E0.03161
G1 X101.894 Y104.689 E0.01333
G1 X102.727 Y105.521 E0.03698
G1 X103.459 Y105.719 E0.02384
G1 X102.310 Y104.570 E0.05105
G1 X102.741 Y104.466 E0.01392
G1 X104.154 Y105.880 E0.06280
G1 X104.818 Y106.009 E0.02127
G1 X103.172 Y104.363 E0.07316
G1 X103.621 Y104.277 E0.01435
G1 X105.464 Y106.121 E0.08194
G1 X106.093 Y106.215 E0.01996
G1 X104.075 Y104.197 E0.08965
G1 X104.537 Y104.125 E0.01468
G1 X106.721 Y106.309 E0.09706
G1 X107.316 Y106.369 E0.01880
G1 X105.008 Y104.061 E0.10258
G1 X105.483 Y104.002 E0.01504
G1 X107.911 Y106.430 E0.10790
G1 X108.505 Y106.490 E0.01878
G1 X105.963 Y103.947 E0.11298
G1 X106.451 Y103.902 E0.01542
G1 X109.100 Y106.550 E0.11769
G1 X109.665 Y106.581 E0.01778
G1 X106.940 Y103.856 E0.12109
G1 X107.440 Y103.822 E0.01575
G1 X110.230 Y106.611 E0.12396
G1 X110.794 Y106.641 E0.01777
G1 X107.942 Y103.789 E0.12674
G1 X108.444 Y103.757 E0.01581
G1 X111.359 Y106.672 E0.12952
G1 X111.924 Y106.702 E0.01777
G1 X108.954 Y103.732 E0.13196
G1 X109.471 Y103.715 E0.01625
G1 X112.470 Y106.714 E0.13329
G1 X113.011 Y106.720 E0.01698
G1 X109.988 Y103.697 E0.13434
G1 X110.504 Y103.679 E0.01625
G1 X113.551 Y106.726 E0.13539
G1 X114.092 Y106.732 E0.01698
G1 X111.021 Y103.662 E0.13644
G1 X111.205 Y103.655 E0.00577
G1 X111.548 Y103.654 E0.01079
G1 X114.632 Y106.738 E0.13705
G1 X115.168 Y106.739 E0.01683
G1 X112.080 Y103.652 E0.13719
G1 X112.613 Y103.650 E0.01673
G1 X115.688 Y106.725 E0.13666
G1 X116.209 Y106.711 E0.01636
G1 X113.145 Y103.648 E0.13613
G1 X113.678 Y103.646 E0.01673
G1 X116.729 Y106.697 E0.13560
G1 X117.250 Y106.684 E0.01636
G1 X114.210 Y103.644 E0.13507
G1 X114.742 Y103.642 E0.01673
G1 X117.770 Y106.670 E0.13454
G1 X118.281 Y106.646 E0.01607
G1 X115.287 Y103.652 E0.13305
G1 X115.842 Y103.673 E0.01747
G1 X118.783 Y106.614 E0.13067
G1 X119.285 Y106.581 E0.01581
G1 X116.398 Y103.694 E0.12828
G1 X116.954 Y103.716 E0.01747
G1 X119.787 Y106.549 E0.12590
G1 X120.289 Y106.516 E0.01581
G1 X117.510 Y103.737 E0.12352
G1 X118.065 Y103.758 E0.01747
G1 X120.791 Y106.484 E0.12113
G1 X121.281 Y106.440 E0.01547
G1 X118.621 Y103.779 E0.11823
G1 X119.177 Y103.801 E0.01747
G1 X121.765 Y106.389 E0.11500
G1 X122.248 Y106.337 E0.01526
G1 X119.732 Y103.822 E0.11177
G1 X120.288 Y103.843 E0.01747
G1 X122.731 Y106.286 E0.10855
M73 Q1 S96
G1 X123.214 Y106.235 E0.01526
G1 X120.844 Y103.865 E0.10532
G1 X121.399 Y103.886 E0.01747
G1 X123.697 Y106.183 E0.10209
G1 X124.180 Y106.132 E0.01526
G1 X121.955 Y103.907 E0.09886
G1 X122.511 Y103.928 E0.01747
G1 X124.645 Y106.062 E0.09482
M73 P1 R93
G1 X125.109 Y105.993 E0.01477
G1 X123.066 Y103.950 E0.09078
G1 X123.622 Y103.971 E0.01747
G1 X125.574 Y105.923 E0.08675
G1 X126.039 Y105.853 E0.01477
G1 X124.178 Y103.992 E0.08271
G1 X124.733 Y104.013 E0.01747
G1 X126.504 Y105.784 E0.07867
G1 X126.965 Y105.711 E0.01468
G1 X125.289 Y104.035 E0.07449
G1 X125.845 Y104.056 E0.01747
G1 X127.421 Y105.633 E0.07006
G1 X127.877 Y105.554 E0.01454
G1 X126.401 Y104.077 E0.06563
G1 X126.956 Y104.099 E0.01747
G1 X128.333 Y105.476 E0.06120
G1 X128.789 Y105.397 E0.01454
G1 X127.512 Y104.120 E0.05677
G1 X128.068 Y104.141 E0.01747
G1 X129.245 Y105.319 E0.05234
G1 X129.701 Y105.240 E0.01454
G1 X128.623 Y104.162 E0.04791
G1 X129.195 Y104.199 E0.01800
G1 X130.157 Y105.162 E0.04277
G1 X130.613 Y105.084 E0.01454
G1 X129.769 Y104.239 E0.03751
G1 X130.344 Y104.279 E0.01809
G1 X131.069 Y105.005 E0.03225
G1 X131.526 Y104.927 E0.01455
G1 X130.918 Y104.319 E0.02702
G1 X131.492 Y104.359 E0.01809
G1 X131.990 Y104.857 E0.02210
G1 X132.453 Y104.786 E0.01474
G1 X132.067 Y104.399 E0.01717
G1 X132.641 Y104.439 E0.01809
G1 X133.066 Y104.864 E0.01887
G1 X133.405 Y104.566 F10800.000
