; generated by PrusaSlicer 2.2.0 on 2020-06-30 at 21:38:21 UTC

; 

; external perimeters extrusion width = 0.45mm
; perimeters extrusion width = 0.45mm
; infill extrusion width = 0.45mm
; solid infill extrusion width = 0.45mm
; top infill extrusion width = 0.40mm
; support material extrusion width = 0.35mm
; first layer extrusion width = 0.42mm

M73 P0 R102
M73 Q0 S102
M201 X1000 Y1000 Z200 E5000 ; sets maximum accelerations, mm/sec^2
M203 X200 Y200 Z12 E120 ; sets maximum feedrates, mm/sec
M204 P1250 R1250 T1250 ; sets acceleration (P, T) and retract acceleration (R), mm/sec^2
M205 X8.00 Y8.00 Z0.40 E4.50 ; sets the jerk limits, mm/sec
M205 S0 T0 ; sets the minimum extruding and travel feed rate, mm/sec
M107
M862.3 P "MK3S" ; printer model check
M862.1 P0.4 ; nozzle diameter check
M115 U3.9.0 ; tell printer latest fw version
G90 ; use absolute coordinates
M83 ; extruder relative mode
M104 S215 ; set extruder temp
M140 S60 ; set bed temp
M190 S60 ; wait for bed temp
M109 S215 ; wait for extruder temp
G28 W ; home all without mesh bed level
G80 ; mesh bed leveling
G1 Y-3.0 F1000.0 ; go outside print area
G92 E0.0
G1 X60.0 E9.0 F1000.0 ; intro line
M73 Q0 S102
M73 P0 R102
G1 X100.0 E12.5 F1000.0 ; intro line
G92 E0.0
M221 S95
G21 ; set units to millimeters
G90 ; use absolute coordinates
M83 ; use relative distances for extrusion
M900 K0.06 ; Filament gcode LA 1.5
M900 K30 ; Filament gcode LA 1.0
;BEFORE_LAYER_CHANGE
G92 E0.0
;0.2


G1 E-0.80000 F2100.00000
G1 Z0.600 F10800.000
;AFTER_LAYER_CHANGE
;0.2
G1 X117.659 Y75.228
G1 Z0.200
G1 E0.80000 F2100.00000
M204 S1000
G1 F1200.000
G1 X118.114 Y74.659 E0.02284
G1 X118.723 Y74.253 E0.02296
G1 X119.427 Y74.052 E0.02296
G1 X132.542 Y74.033 E0.41119
G1 X133.430 Y74.206 E0.02837
G1 X134.189 Y74.697 E0.02837
G1 X134.710 Y75.437 E0.02837
G1 X134.917 Y76.318 E0.02837
G1 X134.919 Y133.763 E1.80115
G1 X134.866 Y134.258 E0.01562
G1 X134.602 Y134.945 E0.02308
G1 X134.140 Y135.519 E0.02308
G1 X133.525 Y135.923 E0.02308
G1 X132.816 Y136.120 E0.02308
G1 X119.713 Y136.136 E0.41084
G1 X119.222 Y136.083 E0.01550
G1 X118.492 Y135.794 E0.02461
G1 X117.897 Y135.283 E0.02461
G1 X117.498 Y134.602 E0.02473
G1 X117.345 Y133.833 E0.02461
G1 X117.344 Y76.407 E1.80056
G1 X117.397 Y75.911 E0.01562
G1 X117.637 Y75.284 E0.02108
G1 F8640.000
G1 X118.114 Y74.659 E-0.18145
G1 X118.723 Y74.253 E-0.16907
G1 X119.427 Y74.052 E-0.16907
G1 X120.468 Y74.050 E-0.24041
G1 E-0.04000 F2100.00000
G1 Z0.800 F10800.000
G1 X134.267 Y71.801
G1 Z0.200
G1 E0.80000 F2100.00000
G1 F1200.000
G1 X135.218 Y72.280 E0.03338
G1 X136.221 Y73.152 E0.04167
G1 X137.060 Y74.464 E0.04881
G1 X137.444 Y75.948 E0.04809
G1 X137.444 Y134.157 E1.82510
G1 X137.351 Y134.879 E0.02280
G1 X136.779 Y136.230 E0.04599
G1 X135.758 Y137.403 E0.04876
G1 X134.603 Y138.120 E0.04265
G1 X133.557 Y138.426 E0.03417
G1 X132.414 Y138.462 E0.03587
G1 X132.135 Y138.492 E0.00880
G1 X120.128 Y138.492 E0.37645
G1 X119.873 Y138.465 E0.00803
G1 X119.076 Y138.469 E0.02500
G1 X118.436 Y138.386 E0.02025
G1 X117.068 Y137.812 E0.04652
G1 X115.930 Y136.828 E0.04715
G1 X115.175 Y135.643 E0.04405
G1 X114.819 Y134.269 E0.04451
G1 X114.819 Y118.977 E0.47946
G1 X115.126 Y117.671 E0.04209
G1 X115.696 Y116.594 E0.03819
G1 X116.756 Y115.491 E0.04798
G1 X117.044 Y113.039 E0.07740
G1 X117.156 Y112.740 E0.01000
G1 F8640.000
G1 X117.044 Y113.039 E-0.07365
G1 X116.756 Y115.491 E-0.56999
G1 X116.407 Y115.854 E-0.11636
G1 E-0.04000 F2100.00000
G1 Z0.800 F10800.000
G1 X117.156 Y108.205
G1 Z0.200
G1 E0.80000 F2100.00000
G1 F1200.000
G1 X116.978 Y105.297 E0.09134
G1 X116.667 Y95.763 E0.29911
G1 X116.797 Y88.349 E0.23248
G1 X116.874 Y87.650 E0.02207
G1 X116.521 Y87.394 E0.01366
G1 X115.667 Y86.492 E0.03894
G1 X114.912 Y84.868 E0.05616
G1 X114.819 Y84.142 E0.02293
G1 X114.819 Y76.078 E0.25284
G1 X114.915 Y75.314 E0.02415
G1 X115.448 Y73.966 E0.04544
G1 X116.406 Y72.784 E0.04771
G1 X117.540 Y71.999 E0.04324
G1 X118.932 Y71.555 E0.04582
G1 X133.201 Y71.538 E0.44739
G1 X134.267 Y71.801 E0.03445
G1 F8640.000
G1 X133.201 Y71.538 E-0.25371
G1 X131.008 Y71.541 E-0.50629
G1 E-0.04000 F2100.00000
G1 Z0.800 F10800.000
G1 X133.134 Y71.910
G1 Z0.200
G1 E0.80000 F2100.00000
G1 F1200.000
G1 X134.118 Y72.148 E0.03173
G1 X135.027 Y72.606 E0.03192
G1 X135.953 Y73.418 E0.03860
G1 X136.703 Y74.588 E0.04360
G1 X137.067 Y75.973 E0.04489
G1 X137.067 Y134.145 E1.82394
G1 X136.981 Y134.803 E0.02082
G1 X136.445 Y136.053 E0.04262
G1 X135.495 Y137.131 E0.04508
G1 X134.429 Y137.785 E0.03921
G1 X133.477 Y138.057 E0.03103
G1 X132.388 Y138.085 E0.03416
G1 X132.124 Y138.115 E0.00834
G1 X120.139 Y138.115 E0.37577
G1 X119.893 Y138.087 E0.00776
G1 X119.111 Y138.093 E0.02451
G1 X118.510 Y138.015 E0.01902
G1 X117.244 Y137.477 E0.04315
G1 X116.200 Y136.563 E0.04349
G1 X115.510 Y135.468 E0.04059
G1 X115.196 Y134.246 E0.03957
G1 X115.196 Y119.000 E0.47802
G1 X115.486 Y117.783 E0.03924
G1 X116.016 Y116.795 E0.03514
G1 X116.896 Y115.872 E0.03998
G1 X117.109 Y115.718 E0.00823
G1 X117.156 Y115.318 E0.01263
G1 F8640.000
G1 X117.109 Y115.718 E-0.09304
G1 X116.896 Y115.872 E-0.06062
G1 X116.016 Y116.795 E-0.29446
G1 X115.486 Y117.783 E-0.25875
G1 X115.433 Y118.006 E-0.05313
G1 E-0.04000 F2100.00000
G1 Z0.800 F10800.000
G1 X117.533 Y112.799
G1 Z0.200
G1 E0.80000 F2100.00000
G1 F1200.000
G1 X117.776 Y112.165 E0.02131
G1 X117.533 Y108.194 E0.12472
G1 F8640.000
G1 X117.734 Y111.479 E-0.76000
G1 E-0.04000 F2100.00000
G1 Z0.800 F10800.000
G1 X117.156 Y99.177
G1 Z0.200
G1 E0.80000 F2100.00000
G1 F1200.000
G1 X117.044 Y95.755 E0.10734
G1 X117.156 Y89.414 E0.19885
G1 F8640.000
G1 X117.098 Y92.705 E-0.76000
G1 E-0.04000 F2100.00000
G1 Z0.800 F10800.000
G1 X117.155 Y87.386
G1 Z0.200
G1 E0.80000 F2100.00000
G1 F1200.000
G1 X116.781 Y87.120 E0.01439
G1 X115.962 Y86.255 E0.03737
G1 X115.282 Y84.790 E0.05063
G1 X115.196 Y84.130 E0.02088
G1 X115.196 Y76.090 E0.25207
G1 X115.286 Y75.386 E0.02226
G1 X115.787 Y74.134 E0.04229
G1 X116.680 Y73.045 E0.04416
G1 X117.729 Y72.327 E0.03985
G1 X119.017 Y71.923 E0.04232
G1 X133.134 Y71.910 E0.44264
G1 F8640.000
G1 X129.843 Y71.913 E-0.76000
G1 E-0.04000 F2100.00000
G1 Z0.800 F10800.000
G1 X134.007 Y72.509
G1 Z0.200
G1 E0.80000 F2100.00000
G1 F1200.000
G1 X134.834 Y72.930 E0.02910
G1 X135.682 Y73.682 E0.03553
G1 X136.368 Y74.765 E0.04021
G1 X136.690 Y75.997 E0.03992
G1 X136.690 Y134.132 E1.82280
G1 X136.610 Y134.727 E0.01881
G1 X136.112 Y135.874 E0.03921
G1 X135.233 Y136.859 E0.04138
G1 X134.257 Y137.448 E0.03577
G1 X133.400 Y137.687 E0.02790
G1 X132.362 Y137.708 E0.03254
G1 X132.112 Y137.738 E0.00789
G1 X120.150 Y137.738 E0.37506
G1 X119.913 Y137.710 E0.00748
G1 X119.147 Y137.717 E0.02404
G1 X118.585 Y137.645 E0.01776
G1 X117.421 Y137.143 E0.03973
G1 X116.470 Y136.299 E0.03986
G1 X115.867 Y135.344 E0.03543
G1 X115.573 Y134.221 E0.03639
G1 X115.573 Y119.023 E0.47653
G1 X115.847 Y117.896 E0.03635
G1 X116.335 Y116.998 E0.03205
G1 X117.156 Y116.147 E0.03709
G1 X117.533 Y115.340 F10800.000
G1 F1200.000
G1 X117.787 Y113.175 E0.06835
G1 X118.157 Y112.225 E0.03197
G1 X117.732 Y105.267 E0.21856
G1 X117.533 Y99.171 E0.19125
G1 F8640.000
G1 X117.640 Y102.460 E-0.76000
G1 E-0.04000 F2100.00000
G1 Z0.800 F10800.000
G1 X117.533 Y89.415
G1 Z0.200
G1 E0.80000 F2100.00000
G1 F1200.000
G1 X117.551 Y88.380 E0.03246
G1 X117.673 Y87.287 E0.03448
G1 X117.533 Y87.189 E0.00537
G1 X117.155 Y86.926 F10800.000
G1 F1200.000
G1 X117.041 Y86.847 E0.00436
G1 X116.257 Y86.018 E0.03578
G1 X115.652 Y84.712 E0.04512
G1 X115.573 Y84.117 E0.01882
G1 X115.573 Y76.103 E0.25129
G1 X115.657 Y75.459 E0.02034
G1 X116.125 Y74.304 E0.03910
G1 X116.952 Y73.307 E0.04061
G1 X117.916 Y72.655 E0.03647
G1 X119.100 Y72.292 E0.03884
G1 X133.067 Y72.282 E0.43793
G1 X134.007 Y72.509 E0.03032
G1 F8640.000
G1 X133.067 Y72.282 E-0.22327
G1 X130.743 Y72.283 E-0.53673
G1 E-0.04000 F2100.00000
G1 Z0.800 F10800.000
G1 X133.002 Y72.654
G1 Z0.200
G1 E0.80000 F2100.00000
G1 F1200.000
G1 X119.181 Y72.661 E0.43334
G1 X118.101 Y72.985 E0.03537
G1 X117.223 Y73.571 E0.03310
G1 X116.462 Y74.475 E0.03704
G1 X116.027 Y75.534 E0.03589
G1 X115.950 Y76.116 E0.01840
G1 X115.950 Y84.104 E0.25048
G1 X116.022 Y84.633 E0.01674
G1 X116.552 Y85.781 E0.03963
G1 X117.155 Y86.419 E0.02753
G1 X117.533 Y86.732 F10800.000
G1 F1200.000
G1 X117.835 Y86.940 E0.01151
G1 X118.080 Y87.047 E0.00836
G1 X117.928 Y88.396 E0.04258
G1 X117.798 Y95.740 E0.23030
G1 X118.108 Y105.252 E0.29841
G1 X118.539 Y112.286 E0.22096
G1 X118.159 Y113.244 E0.03231
G1 X117.818 Y116.149 E0.09172
G1 X117.533 Y116.343 E0.01079
G1 X117.156 Y116.686 F10800.000
G1 F1200.000
G1 X116.652 Y117.204 E0.02264
G1 X116.206 Y118.012 E0.02894
G1 X115.950 Y119.046 E0.03341
G1 X115.950 Y134.197 E0.47505
G1 X116.203 Y135.169 E0.03150
G1 X116.743 Y136.038 E0.03207
G1 X117.601 Y136.810 E0.03620
G1 X118.660 Y137.274 E0.03625
G1 X119.182 Y137.342 E0.01648
G1 X119.934 Y137.333 E0.02360
G1 X120.162 Y137.360 E0.00720
G1 X132.100 Y137.360 E0.37431
G1 X132.337 Y137.332 E0.00746
G1 X133.325 Y137.317 E0.03100
G1 X134.087 Y137.110 E0.02477
G1 X134.974 Y136.584 E0.03232
G1 X135.780 Y135.693 E0.03767
G1 X136.241 Y134.649 E0.03577
G1 X136.312 Y134.119 E0.01677
G1 X136.312 Y76.022 E1.82161
G1 X136.012 Y74.890 E0.03672
G1 X135.411 Y73.945 E0.03511
G1 X134.641 Y73.255 E0.03243
G1 X133.856 Y72.856 E0.02759
G1 X133.002 Y72.654 E0.02752
G1 X133.706 Y73.203 F10800.000
G1 F1200.000
G1 X132.939 Y73.026 E0.02469
G1 X119.261 Y73.031 E0.42887
G1 X118.283 Y73.316 E0.03193
G1 X117.491 Y73.837 E0.02973
G1 X116.798 Y74.648 E0.03345
G1 X116.397 Y75.610 E0.03265
G1 X116.327 Y76.128 E0.01642
G1 X116.327 Y84.091 E0.24966
G1 X116.391 Y84.554 E0.01466
G1 X116.847 Y85.544 E0.03418
G1 X117.155 Y85.870 E0.01407
G1 X117.533 Y86.268 F10800.000
G1 F1200.000
G1 X118.027 Y86.615 E0.01893
G1 X118.487 Y86.798 E0.01554
G1 X118.305 Y88.412 E0.05091
G1 X118.175 Y95.732 E0.22957
G1 X118.485 Y105.237 E0.29818
G1 X118.920 Y112.349 E0.22341
G1 X118.530 Y113.314 E0.03262
G1 X118.172 Y116.368 E0.09641
G1 X117.663 Y116.706 E0.01916
G1 X117.533 Y116.838 E0.00580
G1 X117.156 Y117.220 F10800.000
G1 F1200.000
G1 X116.968 Y117.411 E0.00839
G1 X116.566 Y118.130 E0.02583
G1 X116.327 Y119.070 E0.03042
G1 X116.327 Y134.172 E0.47351
G1 X116.560 Y135.045 E0.02831
G1 X117.017 Y135.778 E0.02709
G1 X117.784 Y136.479 E0.03259
G1 X118.737 Y136.904 E0.03271
G1 X119.217 Y136.966 E0.01517
G1 X119.956 Y136.955 E0.02319
G1 X120.175 Y136.983 E0.00692
G1 X132.088 Y136.983 E0.37351
G1 X132.311 Y136.955 E0.00705
G1 X133.253 Y136.946 E0.02955
G1 X133.921 Y136.771 E0.02164
G1 X134.716 Y136.307 E0.02888
G1 X135.449 Y135.510 E0.03395
G1 X135.871 Y134.570 E0.03230
G1 X135.935 Y134.106 E0.01468
G1 X135.935 Y76.047 E1.82039
G1 X135.656 Y75.017 E0.03347
G1 X135.139 Y74.207 E0.03012
G1 X134.447 Y73.580 E0.02930
G1 X133.706 Y73.203 E0.02605
G1 X132.875 Y73.398 F10800.000
G1 F1200.000
G1 X119.338 Y73.400 E0.42446
G1 X118.463 Y73.648 E0.02850
G1 X117.757 Y74.105 E0.02636
G1 X117.133 Y74.824 E0.02985
G1 X116.767 Y75.687 E0.02938
G1 X116.704 Y76.142 E0.01440
G1 X116.704 Y84.077 E0.24881
G1 X116.761 Y84.474 E0.01256
G1 X117.155 Y85.322 E0.02934
G1 X117.533 Y85.724 F10800.000
G1 F1200.000
G1 X117.790 Y85.998 E0.01180
G1 X118.220 Y86.290 E0.01629
G1 X118.895 Y86.548 E0.02268
G1 X118.681 Y88.427 E0.05930
G1 X118.552 Y95.725 E0.22884
G1 X118.862 Y105.222 E0.29794
G1 X119.306 Y112.476 E0.22787
G1 X119.210 Y112.618 E0.00537
G1 X118.902 Y113.383 E0.02584
G1 X118.519 Y116.647 E0.10307
G1 X118.289 Y116.743 E0.00779
G1 X117.915 Y116.987 E0.01402
G1 X117.533 Y117.370 E0.01694
G1 X117.156 Y117.842 F10800.000
G1 F1200.000
G1 X116.924 Y118.250 E0.01471
G1 X116.704 Y119.095 E0.02737
G1 X116.704 Y134.146 E0.47192
M73 Q1 S101
M73 P1 R101
G1 X116.916 Y134.917 E0.02508
G1 X117.293 Y135.519 E0.02226
G1 X117.969 Y136.149 E0.02899
G1 X118.815 Y136.534 E0.02914
G1 X119.225 Y136.589 E0.01298
G1 X119.980 Y136.578 E0.02366
G1 X120.188 Y136.606 E0.00661
G1 X132.074 Y136.606 E0.37266
G1 X132.284 Y136.578 E0.00665
G1 X133.185 Y136.575 E0.02823
G1 X133.758 Y136.430 E0.01853
G1 X134.461 Y136.028 E0.02543
G1 X135.120 Y135.324 E0.03021
G1 X135.502 Y134.489 E0.02879
G1 X135.558 Y134.092 E0.01256
G1 X135.558 Y76.074 E1.81914
G1 X135.300 Y75.146 E0.03019
G1 X134.866 Y74.468 E0.02525
G1 X134.250 Y73.902 E0.02622
G1 X133.598 Y73.565 E0.02302
G1 X132.875 Y73.398 E0.02326
G1 X132.854 Y73.775 F10800.000
G1 F1200.000
G1 X133.446 Y73.911 E0.01904
G1 X134.053 Y74.225 E0.02144
G1 X134.591 Y74.727 E0.02308
G1 X134.946 Y75.277 E0.02052
G1 X135.181 Y76.101 E0.02685
G1 X135.181 Y134.078 E1.81784
G1 X135.133 Y134.405 E0.01037
G1 X134.792 Y135.135 E0.02525
G1 X134.210 Y135.746 E0.02647
G1 X133.733 Y136.012 E0.01712
G1 F8640.000
G1 X134.210 Y135.746 E-0.12607
G1 X134.792 Y135.135 E-0.19490
G1 X135.133 Y134.405 E-0.18595
G1 X135.181 Y134.078 E-0.07639
G1 X135.181 Y133.313 E-0.17670
G1 E-0.04000 F2100.00000
G1 Z0.800 F10800.000
G1 X118.925 Y136.169
G1 Z0.200
G1 E0.80000 F2100.00000
G1 F1200.000
G1 X118.784 Y136.113 E0.00476
G1 X118.325 Y135.899 F10800.000
G1 F1200.000
G1 X118.157 Y135.821 E0.00581
G1 X117.570 Y135.263 E0.02542
G1 X117.271 Y134.788 E0.01760
G1 X117.081 Y134.119 E0.02179
G1 X117.081 Y119.120 E0.47029
G1 X117.156 Y118.840 E0.00909
G1 X117.533 Y117.939 F10800.000
G1 F1200.000
G1 X117.595 Y117.833 E0.00386
G1 X118.165 Y117.270 E0.02511
G1 X118.474 Y117.072 E0.01152
G1 X118.866 Y116.921 E0.01318
G1 X119.273 Y113.453 E0.10947
G1 X119.547 Y112.789 E0.02253
G1 X119.691 Y112.597 E0.00752
G1 X119.239 Y105.207 E0.23213
G1 X118.929 Y95.717 E0.29771
G1 X119.058 Y88.443 E0.22811
G1 X119.316 Y86.185 E0.07127
G1 X118.907 Y86.149 E0.01290
G1 X118.375 Y85.946 E0.01784
G1 X118.048 Y85.723 E0.01242
G1 X117.533 Y85.184 E0.02337
G1 X117.155 Y84.446 F10800.000
G1 F1200.000
G1 X117.129 Y84.390 E0.00192
G1 X117.081 Y84.063 E0.01037
G1 X117.081 Y76.155 E0.24794
G1 X117.137 Y75.766 E0.01234
G1 X117.467 Y75.002 E0.02607
G1 X118.021 Y74.376 E0.02623
G1 X118.640 Y73.982 E0.02301
G1 X119.412 Y73.771 E0.02510
G1 X132.854 Y73.775 E0.42146
G1 F8640.000
G1 X129.562 Y73.774 E-0.76000
G1 E-0.04000 F2100.00000
G1 Z0.800 F10800.000
G1 X117.533 Y84.377
G1 Z0.200
G1 E0.80000 F2100.00000
G1 F1200.000
G1 X117.796 Y84.927 E0.01913
G1 X118.304 Y85.445 E0.02275
G1 X118.531 Y85.602 E0.00865
G1 X119.010 Y85.785 E0.01607
G1 X119.738 Y85.820 E0.02285
G1 X119.435 Y88.459 E0.08329
G1 X119.306 Y95.710 E0.22738
G1 X119.616 Y105.192 E0.29748
G1 X120.077 Y112.725 E0.23662
G1 X119.882 Y112.964 E0.00969
G1 X119.645 Y113.525 E0.01907
G1 X119.214 Y117.196 E0.11590
G1 X118.659 Y117.401 E0.01853
G1 X118.386 Y117.576 E0.01019
G1 X117.879 Y118.082 E0.02245
G1 X117.638 Y118.497 E0.01506
G1 X117.533 Y118.875 E0.01230
G1 F8640.000
G1 X117.638 Y118.497 E-0.09055
G1 X117.879 Y118.082 E-0.11088
G1 X118.386 Y117.576 E-0.16534
G1 X118.659 Y117.401 E-0.07506
G1 X119.214 Y117.196 E-0.13646
G1 X119.305 Y116.414 E-0.18171
G1 E-0.04000 F2100.00000
G1 Z0.800 F10800.000
G1 X118.539 Y135.586
G1 Z0.200
G1 E0.80000 F2100.00000
G1 F1200.000
G1 X118.838 Y135.728 E0.01037
G1 X119.025 Y135.802 F10800.000
G1 F1200.000
G1 X119.245 Y135.834 E0.00697
G1 X120.033 Y135.823 E0.02473
G1 X120.219 Y135.852 E0.00589
G1 X121.497 Y135.852 E0.04007
G1 X121.606 Y135.836 E0.00346
G1 X121.716 Y135.852 E0.00346
G1 X123.005 Y135.852 E0.04044
G1 X123.115 Y135.836 E0.00346
G1 X123.224 Y135.852 E0.00346
G1 X124.514 Y135.852 E0.04044
G1 X124.623 Y135.836 E0.00346
G1 X124.732 Y135.852 E0.00346
G1 X126.022 Y135.852 E0.04044
G1 X126.131 Y135.836 E0.00346
G1 X126.240 Y135.852 E0.00346
G1 X127.530 Y135.852 E0.04044
G1 X127.640 Y135.836 E0.00346
G1 X127.749 Y135.852 E0.00346
G1 X129.039 Y135.852 E0.04044
G1 X129.148 Y135.836 E0.00346
G1 X129.257 Y135.852 E0.00346
G1 X130.547 Y135.852 E0.04044
G1 X130.656 Y135.836 E0.00346
G1 X130.765 Y135.852 E0.00346
G1 X132.043 Y135.852 E0.04007
G1 X132.229 Y135.823 E0.00587
G1 X133.060 Y135.830 E0.02606
G1 X133.443 Y135.743 E0.01231
G1 X133.519 Y135.702 E0.00272
G1 F8640.000
G1 X133.443 Y135.743 E-0.02002
G1 X133.060 Y135.830 E-0.09065
G1 X132.229 Y135.823 E-0.19191
G1 X132.043 Y135.852 E-0.04326
G1 X130.765 Y135.852 E-0.29511
